svg/dotnetfx.svg

<svg viewBox="0 0 20 20" xmlns="http://www.w3.org/2000/svg">
<rect width="100%" height="100%" fill="#1E69BB"/>
<path d="M9.77381 6.25532H5.72619C3.9881 6.18261 1.58333 9.47875 0.5 13.7444H2.25C2.8678 13.7855 3.47971 13.6005 3.97527 13.2228C4.47083 12.845 4.81738 12.2993 4.95238 11.6843C5.2381 10.7875 5.46429 10.0241 5.66667 9.39393C6.09322 8.75011 6.57959 8.14952 7.11905 7.60044C7.79762 9.74535 8.05952 13.5262 10.0238 13.5262H13.8095C15.3571 13.5262 16.9167 10.7027 19.5 6.00084H16.6429C16.0555 5.98564 15.4809 6.17761 15.0167 6.54421C14.5524 6.91082 14.2268 7.42952 14.0952 8.01245C13.4762 10.0241 13.1071 11.3207 12.75 12.1448C12.0476 10.0604 11.7976 6.25532 9.77381 6.25532" fill="white"/>
</svg>

<svg xmlns="http://www.w3.org/2000/svg" viewBox="0 0 20 20">
  <rect width="100%" height="100%" fill="#1E69BB"/>
  <path fill="#fff" d="M9.77 6.26H5.73C3.99 6.18 1.58 9.48.5 13.74h1.75c.62.05 1.23-.14 1.73-.52s.84-.92.97-1.54c.29-.9.51-1.66.72-2.29.42-.64.91-1.24 1.45-1.79.68 2.15.94 5.93 2.9 5.93h3.79c1.55 0 3.1-2.83 5.69-7.53h-2.86a2.52 2.52 0 0 0-1.62.54 2.6 2.6 0 0 0-.92 1.47c-.62 2.01-1 3.31-1.35 4.13-.7-2.08-.95-5.88-2.98-5.88"/>
</svg>
